src/2-landmarks/totem--default.svg

<svg width="1300" height="1000" viewBox="0 0 1300 1000" fill="none" xmlns="http://www.w3.org/2000/svg"><path d="M673 600.5a3.5 3.5 0 0 1 3.5-3.5h43a3.5 3.5 0 1 1 0 7h-43a3.5 3.5 0 0 1-3.5-3.5Z" fill="#000"/><path fill-rule="evenodd" clip-rule="evenodd" d="M615 357c-8.284 0-15 6.716-15 15v190c0 8.284 6.716 15 15 15h33v286h-10c-11.046 0-20 8.954-20 20v17h7v-15c0-8.284 6.716-15 15-15h116c8.284 0 15 6.716 15 15v15h7v-17c0-11.046-8.954-20-20-20h-10V577h37c8.284 0 15-6.716 15-15V372c0-8.284-6.716-15-15-15H615Zm126 506V577h-86v286h86ZM617 570c-5.523 0-10-4.477-10-10V374c0-5.523 4.477-10 10-10h166c5.523 0 10 4.477 10 10v186c0 5.523-4.477 10-10 10H617Z" fill="#000"/><path d="M0 900h1300v100H0V900Z" fill="#000"/></svg>

<svg width="1300" height="1000" viewBox="0 0 1300 1000" fill="none" xmlns="http://www.w3.org/2000/svg">
<path d="M673 600.5C673 598.567 674.567 597 676.5 597H719.5C721.433 597 723 598.567 723 600.5C723 602.433 721.433 604 719.5 604H676.5C674.567 604 673 602.433 673 600.5Z" fill="black"/>
<path fill-rule="evenodd" clip-rule="evenodd" d="M615 357C606.716 357 600 363.716 600 372V562C600 570.284 606.716 577 615 577H648V863H638C626.954 863 618 871.954 618 883V900H625V885C625 876.716 631.716 870 640 870H756C764.284 870 771 876.716 771 885V900H778V883C778 871.954 769.046 863 758 863H748V577H785C793.284 577 800 570.284 800 562V372C800 363.716 793.284 357 785 357H615ZM741 863V577H655V863H741ZM617 570C611.477 570 607 565.523 607 560V374C607 368.477 611.477 364 617 364H783C788.523 364 793 368.477 793 374V560C793 565.523 788.523 570 783 570H617Z" fill="black"/>
<path d="M0 900H1300V1000H0V900Z" fill="black"/>
</svg>
